icons/1_Primary/Carrd.svg

<svg width="1024" height="1024" fill="none" xmlns="http://www.w3.org/2000/svg"><g clip-path="url(#a)"><path d="M512 1024c282.77 0 512-229.23 512-512S794.77 0 512 0 0 229.23 0 512s229.23 512 512 512Z" fill="#8C72BD"/><path d="M715.8 332.4v306.2c0 4.3-2.5 8.3-6.4 10.2L464 766.5c-1.6.8-3.2 1.1-4.9 1.1-2.1 0-4.2-.6-6-1.7-3.3-2.1-5.3-5.8-5.3-9.6V639.7l-132.6-55.5c-4.2-1.8-7-5.9-7-10.5V267.6c0-3.9 2-7.5 5.3-9.5 3.3-2.1 7.5-2.4 10.9-.7l255 122.3 120.1-57.6c3.5-1.6 7.6-1.4 10.9.7 3.3 2.1 5.4 5.7 5.4 9.6Zm-268 282.9v-56.4l-73.5-29.6c-5.8-2.4-8.7-9-6.3-14.7 2.4-5.8 9-8.7 14.7-6.3l65.1 26.2v-46.2l-73.5-29.6c-5.8-2.4-8.7-9-6.3-14.7 2.4-5.8 9-8.7 14.7-6.3l65.1 26.2v-13.5c0-4.3 2.5-8.3 6.4-10.2l16.8-8.1-97.3-44.2c-5.8-2.6-8.2-9.3-5.7-15 2.6-5.8 9.3-8.2 15-5.7l114.4 52.1 55.8-26.8-222.3-106.8v280.6l116.9 49Zm245.3 16.1v-281L470.4 457.3v281.1l222.7-107ZM507.8 511.8c1.9 4.1 5.9 6.4 10.2 6.4 1.6 0 3.3-.4 4.9-1.1l127.7-61.7c5.7-2.7 8-9.4 5.3-15.1-2.7-5.7-9.4-8-15.1-5.3L513 496.7c-5.6 2.7-8 9.4-5.2 15.1Zm0 70.7c1.9 4.1 5.9 6.4 10.2 6.4 1.6 0 3.3-.4 4.9-1.1L650.5 526c5.7-2.7 8-9.4 5.3-15.1-2.7-5.7-9.4-8-15.1-5.3L513 567.4c-5.6 2.7-8 9.4-5.2 15.1Zm0 70.6c1.9 4.1 5.9 6.4 10.2 6.4 1.6 0 3.3-.4 4.9-1.1l127.7-61.7c5.7-2.7 8-9.4 5.3-15.1-2.7-5.7-9.4-8-15.1-5.3L513 638c-5.6 2.8-8 9.5-5.2 15.1Z" fill="#fff"/></g><defs><clipPath id="a"><path fill="#fff" d="M0 0h1024v1024H0z"/></clipPath></defs></svg>

<svg width="1024" height="1024" viewBox="0 0 1024 1024" fill="none" xmlns="http://www.w3.org/2000/svg">
<g clip-path="url(#clip0_2_1779)">
<path d="M512 1024C794.77 1024 1024 794.77 1024 512C1024 229.23 794.77 0 512 0C229.23 0 0 229.23 0 512C0 794.77 229.23 1024 512 1024Z" fill="#8C72BD"/>
<path d="M715.8 332.4V638.6C715.8 642.9 713.3 646.9 709.4 648.8L464 766.5C462.4 767.3 460.8 767.6 459.1 767.6C457 767.6 454.9 767 453.1 765.9C449.8 763.8 447.8 760.1 447.8 756.3V639.7L315.2 584.2C311 582.4 308.2 578.3 308.2 573.7V267.6C308.2 263.7 310.2 260.1 313.5 258.1C316.8 256 321 255.7 324.4 257.4L579.4 379.7L699.5 322.1C703 320.5 707.1 320.7 710.4 322.8C713.7 324.9 715.8 328.5 715.8 332.4ZM447.8 615.3V558.9L374.3 529.3C368.5 526.9 365.6 520.3 368 514.6C370.4 508.8 377 505.9 382.7 508.3L447.8 534.5V488.3L374.3 458.7C368.5 456.3 365.6 449.7 368 444C370.4 438.2 377 435.3 382.7 437.7L447.8 463.9V450.4C447.8 446.1 450.3 442.1 454.2 440.2L471 432.1L373.7 387.9C367.9 385.3 365.5 378.6 368 372.9C370.6 367.1 377.3 364.7 383 367.2L497.4 419.3L553.2 392.5L330.9 285.7V566.3L447.8 615.3ZM693.1 631.4V350.4L470.4 457.3V738.4L693.1 631.4ZM507.8 511.8C509.7 515.9 513.7 518.2 518 518.2C519.6 518.2 521.3 517.8 522.9 517.1L650.6 455.4C656.3 452.7 658.6 446 655.9 440.3C653.2 434.6 646.5 432.3 640.8 435L513 496.7C507.4 499.4 505 506.1 507.8 511.8ZM507.8 582.5C509.7 586.6 513.7 588.9 518 588.9C519.6 588.9 521.3 588.5 522.9 587.8L650.5 526C656.2 523.3 658.5 516.6 655.8 510.9C653.1 505.2 646.4 502.9 640.7 505.6L513 567.4C507.4 570.1 505 576.8 507.8 582.5ZM507.8 653.1C509.7 657.2 513.7 659.5 518 659.5C519.6 659.5 521.3 659.1 522.9 658.4L650.6 596.7C656.3 594 658.6 587.3 655.9 581.6C653.2 575.9 646.5 573.6 640.8 576.3L513 638C507.4 640.8 505 647.5 507.8 653.1Z" fill="white"/>
</g>
<defs>
<clipPath id="clip0_2_1779">
<rect width="1024" height="1024" fill="white"/>
</clipPath>
</defs>
</svg>
